svgs/sharp-regular/up-from-dotted-line.svg

<svg xmlns="http://www.w3.org/2000/svg" viewBox="0 0 448 512"><!--! Font Awesome Pro 6.4.2 by @fontawesome - https://fontawesome.com License - https://fontawesome.com/license (Commercial License) Copyright 2023 Fonticons, Inc. --><path d="M256 256V208h48 28.1L224 99.9 115.9 208H144h48v48 80h64V256zm1.9-190.1L384 192v16 48H352 336 304v48 32 48H256 192 144V336 304 256H112 96 64V208 192L190.1 65.9 224 32l33.9 33.9zM64 416v64H0V416H64zm96 0v64H96V416h64zm32 64V416h64v64H192zm160-64v64H288V416h64zm32 0h64v64H384V416z"/></svg>

<svg xmlns="http://www.w3.org/2000/svg" viewBox="0 0 448 512"><!--! Font Awesome Pro 6.6.0 by @fontawesome - https://fontawesome.com License - https://fontawesome.com/license (Commercial License) Copyright 2024 Fonticons, Inc. --><path d="M256 256l0-48 48 0 28.1 0L224 99.9 115.9 208l28.1 0 48 0 0 48 0 80 64 0 0-80zm1.9-190.1L384 192l0 16 0 48-32 0-16 0-32 0 0 48 0 32 0 48-48 0-64 0-48 0 0-48 0-32 0-48-32 0-16 0-32 0 0-48 0-16L190.1 65.9 224 32l33.9 33.9zM64 416l0 64L0 480l0-64 64 0zm96 0l0 64-64 0 0-64 64 0zm32 64l0-64 64 0 0 64-64 0zm160-64l0 64-64 0 0-64 64 0zm32 0l64 0 0 64-64 0 0-64z"/></svg>
